X:2
T:*  The Old Grand Spey (C whistle 1 note hi)
M:4/4
L:1/8
S:L. Nugent W_GAP Trk 4
R:slow reel
Z:Ed Wosika
K:C
F| EGAG cGAG |  EGAG EDD2 | EGAG cGAG | (3EFE DF ECC2 |
EGAG cGAG | EGAG EDD2 | EGAG cdef  | (3gag ed ecc :||
d| e3d c3G | ~A2Gc ~A2Gd| e3d c3G | (3ABc GE EDD2|
   e3d c3G | ~A2Gc ~A2Gd| eaag eGAB| cAGF ECC:|
